brandFactory_export/1.Light/Academic_1Light.svg

<?xml version="1.0" encoding="UTF-8"?>
<svg width="24px" height="24px" viewBox="0 0 24 24" version="1.1" xmlns="http://www.w3.org/2000/svg" xmlns:xlink="http://www.w3.org/1999/xlink">
    <title>1.Light/Academic_1Light</title>
    <g id="Symbols" stroke="none" stroke-width="1" fill="none" fill-rule="evenodd">
        <g id="1.Light/Academic_1Light" fill="#5CB615" fill-rule="nonzero">
            <path d="M22.7764706,19.789916 L21.4890756,19.789916 C21.4890756,19.2957983 21.8857143,18.502521 22.0840336,18.502521 C22.2823529,18.502521 22.7764706,19.194958 22.7764706,19.789916 L22.7764706,19.789916 Z M18.7226891,16.3277311 C18.7226891,16.7243697 18.4268908,17.0201681 18.1277311,17.0201681 C16.4470588,17.3159664 14.0739496,18.0084034 12.194958,19.4941176 C11.7983193,19.789916 11.2067227,19.789916 10.810084,19.4941176 C9.02857143,18.0117647 6.55798319,17.3193277 4.87731092,17.0201681 C4.48067227,16.9226891 4.28235294,16.6235294 4.28235294,16.3277311 L4.28235294,12.0756303 L10.712605,15.0436975 C11.1092437,15.2420168 11.6033613,15.2420168 12,15.0436975 L18.6218487,11.9747899 L18.7226891,16.3277311 Z M1.01848739,9.10756303 C1.01848739,8.81176471 1.11596639,8.61344538 1.41512605,8.51260504 L11.2067227,4.06218487 C11.405042,3.96470588 11.502521,3.96470588 11.7008403,4.06218487 L21.492437,8.51260504 C21.610084,8.57310924 21.589916,8.61008403 21.589916,8.61008403 L11.3042017,8.61008403 C11.0084034,8.61008403 10.810084,8.80840336 10.810084,9.10420168 C10.810084,9.4 11.0084034,9.59831933 11.3042017,9.59831933 L21.3915966,9.59831933 L11.6,14.0521008 C11.4016807,14.1495798 11.3042017,14.1495798 11.1058824,14.0521008 L1.31428571,9.60168067 C1.11596639,9.50420168 1.01848739,9.30588235 1.01848739,9.10756303 Z M22.6789916,17.6151261 L22.6789916,9.60168067 C22.6957983,8.97983193 22.7394958,7.95462185 21.8890756,7.62521008 L12.0941176,3.17478992 C11.6,2.97647059 11.2033613,2.97647059 10.7092437,3.07731092 L0.917647059,7.62521008 C0.322689076,7.82352941 0.0268907563,8.41512605 0.0268907563,9.10756303 C0.0268907563,9.8 0.423529412,10.2941176 0.917647059,10.589916 L3.29411765,11.6789916 L3.29411765,16.3277311 C3.29411765,17.2184874 3.88907563,17.9109244 4.6789916,18.1092437 C6.26218487,18.405042 8.53781513,19 10.1176471,20.3848739 C10.5142857,20.6806723 10.907563,20.8789916 11.405042,20.8789916 C11.8991597,20.8789916 12.2957983,20.6806723 12.692437,20.3848739 C14.3731092,19.097479 16.5512605,18.4084034 18.1310924,18.1092437 C18.9210084,17.9109244 19.5159664,17.2184874 19.5159664,16.3277311 L19.5159664,11.5815126 L21.5932773,10.6907563 L21.5932773,17.6151261 C20.8033613,17.9109244 20.4067227,19.097479 20.4067227,19.789916 C20.4067227,20.0857143 20.5042017,20.3848739 20.702521,20.5798319 C20.9983193,20.8756303 21.394958,20.8756303 21.7915966,20.8756303 L22.3865546,20.8756303 C22.6823529,20.8756303 22.9680672,20.805042 23.2773109,20.5798319 C23.502521,20.4151261 23.5865546,20.297479 23.6235294,19.789916 C23.6672269,19.0605042 23.3714286,18.1092437 22.6789916,17.6151261 Z" id="Academic_1Light"></path>
        </g>
    </g>
</svg>

<svg width="24" height="24" viewBox="0 0 24 24" xmlns="http://www.w3.org/2000/svg"><path d="M22.776 19.79H21.49c0-.494.397-1.287.595-1.287.198 0 .692.692.692 1.287zm-4.053-3.462c0 .396-.296.692-.595.692-1.68.296-4.054.988-5.933 2.474a1.192 1.192 0 01-1.385 0C9.03 18.012 6.558 17.32 4.877 17.02c-.396-.097-.595-.396-.595-.692v-4.252l6.43 2.968c.397.198.891.198 1.288 0l6.622-3.07.1 4.354zM1.018 9.108c0-.296.098-.495.397-.595l9.792-4.45c.198-.098.296-.098.494 0l9.791 4.45c.118.06.098.097.098.097H11.304c-.296 0-.494.198-.494.494s.198.494.494.494h10.088L11.6 14.052c-.198.098-.296.098-.494 0l-9.792-4.45a.54.54 0 01-.296-.494zm21.661 8.507V9.602c.017-.622.06-1.647-.79-1.977l-9.795-4.45c-.494-.199-.89-.199-1.385-.098L.918 7.625c-.595.199-.891.79-.891 1.483 0 .692.397 1.186.89 1.482l2.377 1.089v4.649c0 .89.595 1.583 1.385 1.781 1.583.296 3.859.891 5.439 2.276.396.296.79.494 1.287.494.494 0 .89-.198 1.287-.494 1.681-1.288 3.86-1.977 5.44-2.276a1.815 1.815 0 001.384-1.781v-4.746l2.077-.891v6.924c-.79.296-1.186 1.482-1.186 2.175 0 .296.097.595.296.79.295.296.692.296 1.089.296h.595c.295 0 .581-.071.89-.296.226-.165.31-.283.347-.79.043-.73-.253-1.68-.945-2.175z" fill="#5CB615" fill-rule="nonzero"/></svg>
